src/svg/uf294-bluetooth-b.svg

<!-- Generated by IcoMoon.io -->
<svg version="1.1" xmlns="http://www.w3.org/2000/svg" width="18" height="32" viewBox="0 0 18 32">
<path d="M10.643 25.411l3.089-3.071-3.089-3.071v6.143zM10.643 12.732l3.089-3.071-3.089-3.071v6.143zM11.214 16l6.357 6.357-9.625 9.643v-12.696l-5.304 5.286-1.929-1.929 6.643-6.661-6.643-6.661 1.929-1.929 5.304 5.286v-12.696l9.625 9.643z"></path>
</svg>

<svg xmlns="http://www.w3.org/2000/svg" width="18" height="32"><path d="M10.643 25.411l3.089-3.071-3.089-3.071v6.143zm0-12.679l3.089-3.071-3.089-3.071v6.143zM11.214 16l6.357 6.357L7.946 32V19.304L2.642 24.59.713 22.661 7.356 16 .713 9.339 2.642 7.41l5.304 5.286V0l9.625 9.643z"/></svg>
